local/share/icons/dracula-icons-main/scalable/mimetypes/x-kde-nsplugin-generated.svg

<?xml version="1.0" encoding="UTF-8"?>
<svg xmlns="http://www.w3.org/2000/svg" xmlns:xlink="http://www.w3.org/1999/xlink" width="64" height="64" viewBox="0 0 64 64">
<defs>
<filter id="filter-remove-color" x="0%" y="0%" width="100%" height="100%">
<feColorMatrix color-interpolation-filters="sRGB" values="0 0 0 0 1 0 0 0 0 1 0 0 0 0 1 0 0 0 1 0" />
</filter>
<mask id="mask-0">
<g filter="url(#filter-remove-color)">
<rect x="-6.4" y="-6.4" width="76.8" height="76.8" fill="rgb(0%, 0%, 0%)" fill-opacity="0.15"/>
</g>
</mask>
<linearGradient id="linear-pattern-0" gradientUnits="userSpaceOnUse" x1="49.570999" y1="52.714001" x2="51.714001" y2="54.856998" gradientTransform="matrix(2.3333, 0, 0, 2.3333, -68.667, -72.000999)">
<stop offset="0" stop-color="rgb(0%, 0%, 0%)" stop-opacity="1"/>
<stop offset="1" stop-color="rgb(0%, 0%, 0%)" stop-opacity="0"/>
</linearGradient>
<clipPath id="clip-0">
<rect x="0" y="0" width="64" height="64"/>
</clipPath>
<g id="source-3481" clip-path="url(#clip-0)">
<path fill-rule="evenodd" fill="url(#linear-pattern-0)" d="M 56 46 L 42 60 L 51 60 C 53.769531 60 56 57.769531 56 55 Z M 56 46 "/>
</g>
</defs>
<path fill-rule="nonzero" fill="rgb(94.509804%, 76.470588%, 42.352941%)" fill-opacity="1" d="M 13 4 L 51 4 C 53.761719 4 56 6.238281 56 9 L 56 55 C 56 57.761719 53.761719 60 51 60 L 13 60 C 10.238281 60 8 57.761719 8 55 L 8 9 C 8 6.238281 10.238281 4 13 4 Z M 13 4 "/>
<g mask="url(#mask-0)">
<use xlink:href="#source-3481"/>
</g>
<path fill-rule="nonzero" fill="rgb(47.058824%, 38.039216%, 21.176471%)" fill-opacity="1" d="M 29.308594 20 C 27.597656 20 26.207031 21.390625 26.207031 23.101562 C 26.207031 24.214844 26.804688 25.242188 27.765625 25.792969 L 20.828125 25.792969 C 20.367188 25.792969 20 26.164062 20 26.621094 L 20 32.734375 C 20.550781 31.769531 21.578125 31.171875 22.6875 31.171875 C 24.402344 31.171875 25.792969 32.5625 25.792969 34.277344 C 25.792969 35.988281 24.402344 37.378906 22.6875 37.378906 C 21.578125 37.378906 20.550781 36.78125 20 35.816406 L 20 43.171875 C 20 43.632812 20.367188 44 20.828125 44 L 27.765625 44 C 26.804688 43.449219 26.207031 42.421875 26.207031 41.308594 C 26.207031 39.597656 27.597656 38.207031 29.308594 38.207031 C 31.023438 38.207031 32.414062 39.597656 32.414062 41.308594 C 32.410156 42.421875 31.816406 43.449219 30.851562 44 L 37.378906 44 C 37.835938 44 38.207031 43.632812 38.207031 43.171875 L 38.207031 35.816406 C 38.757812 36.78125 39.785156 37.378906 40.894531 37.378906 C 42.609375 37.378906 44 35.988281 44 34.277344 C 44 32.5625 42.609375 31.171875 40.894531 31.171875 C 39.785156 31.171875 38.757812 31.769531 38.207031 32.734375 L 38.207031 26.621094 C 38.207031 26.164062 37.835938 25.792969 37.378906 25.792969 L 30.851562 25.792969 C 31.816406 25.242188 32.410156 24.214844 32.414062 23.101562 C 32.414062 21.390625 31.023438 20 29.308594 20 Z M 29.308594 20 "/>
</svg>

<svg width="64" height="64" version="1.1" viewBox="0 0 64 64" xmlns="http://www.w3.org/2000/svg">
 <defs>
  <linearGradient id="a" x1="49.571" x2="51.714" y1="52.714" y2="54.857" gradientTransform="matrix(2.3333,0,0,2.3333,-68.667,-72.001)" gradientUnits="userSpaceOnUse">
   <stop offset="0"/>
   <stop stop-opacity="0" offset="1"/>
  </linearGradient>
 </defs>
 <g transform="scale(1)">
  <rect x="8" y="4" width="48" height="56" ry="5" fill="#f1c36c" style="paint-order:stroke fill markers"/>
  <path d="m56 46-14 14h9c2.77 0 5-2.23 5-5z" fill="url(#a)" fill-rule="evenodd" opacity=".15" stroke-width="8.8191" style="paint-order:stroke fill markers"/>
 </g>
 <path d="m29.31 20a3.1034 3.1034 0 0 0-3.1034 3.1034 3.1034 3.1034 0 0 0 1.5604 2.6897h-6.9397c-0.45848 0-0.82759 0.3691-0.82759 0.82759v6.1121a3.1034 3.1034 0 0 1 2.6897-1.5604 3.1034 3.1034 0 1 1 0 6.2069 3.1034 3.1034 0 0 1-2.6897-1.5629v7.356c0 0.45848 0.3691 0.82759 0.82759 0.82759h6.9397a3.1034 3.1034 0 0 1-1.5604-2.6897 3.1034 3.1034 0 1 1 6.2069 0 3.1034 3.1034 0 0 1-1.5629 2.6897h6.5284c0.45848 0 0.82759-0.3691 0.82759-0.82759v-7.356a3.1034 3.1034 0 0 0 2.6897 1.5629 3.1034 3.1034 0 1 0 0-6.2069 3.1034 3.1034 0 0 0-2.6897 1.5604v-6.1121c0-0.45848-0.3691-0.82759-0.82759-0.82759h-6.5284a3.1034 3.1034 0 0 0 1.5629-2.6897 3.1034 3.1034 0 0 0-3.1034-3.1034z" fill="#786136"/>
</svg>
